X: 3037
T: Bore
%R: bourr\'ee
B: Henry Playford "Apollo's Banquet", London 1687 (5th Edition)
F: https://archive.org/details/apollosbanquetco01rugg
Z: 2017 John Chambers <jc:trillian.mit.edu>
M: C|
L: 1/8
K: C
% - - - - - - - - - -
gf |\
e2f2 d2g2 | e2c2 c2fg |\
a2gf e3f | g2gf edcB |\
A2(fe) e3d| d6 :: dc |\
B2c2 A2d2 | B2G2 G2c2 |
d2e2 f3g | e2c2 f3f |\
g2a2 g3f | f2(fg) a2a2 |\
e2(ef) g2g2 | d2g2 g2g2 |\
c2A2 d2dc | B2G2 ge fg |\
agfe d3c | c6 |]
% - - - - - - - - - -

%%sep 1 1 500
%%sep 1 1 500

